Header-Spa-Beauty/img/Vector.svg

<svg width="473" height="438" viewBox="0 0 473 438" fill="none" xmlns="http://www.w3.org/2000/svg">
<path d="M328.874 210.561C330.256 174.844 324.256 139.227 311.248 105.934C298.24 72.6418 278.504 42.3908 253.274 17.0723L236.5 0.53476L219.726 17.0723C195.481 41.1263 176.268 69.7669 163.207 101.324C150.146 132.881 143.499 166.722 143.654 200.875C143.654 204.182 143.654 207.49 143.654 210.561C107.454 188.876 66.0721 177.368 23.875 177.25H0.25V200.875C0.249264 259.442 22.0032 315.923 61.2913 359.358C100.579 402.793 154.601 430.087 212.875 435.943V437.125H260.125V435.943C318.399 430.087 372.421 402.793 411.709 359.358C450.997 315.923 472.751 259.442 472.75 200.875V177.25H449.125C406.767 177.283 365.211 188.794 328.874 210.561ZM236.5 69.2835C256.779 95.0902 270.808 125.241 277.489 157.375C284.169 189.508 283.321 222.753 275.009 254.503C259.485 271.431 246.512 290.532 236.5 311.203C226.488 290.532 213.515 271.431 197.991 254.503C193.373 236.998 190.991 218.979 190.904 200.875C190.732 153.108 206.811 106.703 236.5 69.2835ZM49.1538 226.153C90.1913 231.683 128.277 250.537 157.557 279.817C186.837 309.098 205.691 347.183 211.221 388.221C170.184 382.691 132.098 363.837 102.818 334.557C73.5375 305.277 54.6836 267.191 49.1538 226.153ZM261.779 388.221C267.309 347.183 286.163 309.098 315.443 279.817C344.723 250.537 382.809 231.683 423.846 226.153C418.316 267.191 399.462 305.277 370.182 334.557C340.902 363.837 302.816 382.691 261.779 388.221Z" fill="#264065"/>
</svg>

<?xml version="1.0" encoding="UTF-8"?>
<svg id="Capa_1" xmlns="http://www.w3.org/2000/svg" version="1.1" viewBox="0 0 473 438">
  <!-- Generator: Adobe Illustrator 29.5.1, SVG Export Plug-In . SVG Version: 2.1.0 Build 141)  -->
  <defs>
    <style>
      .st0 {
        fill: #264065;
        opacity: .17;
      }
    </style>
  </defs>
  <path class="st0" d="M328.87,210.56c1.38-35.72-4.62-71.33-17.63-104.63-13.01-33.29-32.74-63.54-57.97-88.86L236.5.53l-16.77,16.54c-24.24,24.05-43.46,52.69-56.52,84.25-13.06,31.56-19.71,65.4-19.55,99.55v9.69c-36.2-21.68-77.58-33.19-119.78-33.31H.25v23.62c0,58.57,21.75,115.05,61.04,158.48,39.29,43.43,93.31,70.73,151.58,76.58v1.18h47.25v-1.18c58.27-5.86,112.3-33.15,151.58-76.58,39.29-43.43,61.04-99.92,61.04-158.48v-23.62h-23.62c-42.36.03-83.91,11.54-120.25,33.31ZM236.5,69.28c20.28,25.81,34.31,55.96,40.99,88.09,6.68,32.13,5.83,65.38-2.48,97.13-15.52,16.93-28.5,36.03-38.51,56.7-10.01-20.67-22.99-39.77-38.51-56.7-4.62-17.51-7-35.52-7.09-53.63-.17-47.77,15.91-94.17,45.6-131.59ZM49.15,226.15c41.04,5.53,79.12,24.38,108.4,53.66,29.28,29.28,48.13,67.37,53.66,108.4-41.04-5.53-79.12-24.38-108.4-53.66-29.28-29.28-48.13-67.37-53.66-108.4ZM261.78,388.22c5.53-41.04,24.38-79.12,53.66-108.4,29.28-29.28,67.37-48.13,108.4-53.66-5.53,41.04-24.38,79.12-53.66,108.4s-67.37,48.13-108.4,53.66Z"/>
</svg>
